source/img/svg/icon-sharing-vk.svg

<svg width="24" height="24" viewBox="0 0 24 24" fill="none" xmlns="http://www.w3.org/2000/svg">
<path fill-rule="evenodd" clip-rule="evenodd" d="M11.7637 18.6835H13.0788C13.0788 18.6835 13.476 18.6393 13.6788 18.4174C13.8654 18.2137 13.8595 17.8312 13.8595 17.8312C13.8595 17.8312 13.8338 16.0405 14.6527 15.7768C15.46 15.5171 16.4967 17.5075 17.5955 18.2728C18.4264 18.852 19.0577 18.725 19.0577 18.725L21.9957 18.6835C21.9957 18.6835 23.5326 18.5874 22.8039 17.3611C22.7442 17.2608 22.3795 16.4539 20.6195 14.796C18.7773 13.0608 19.024 13.3415 21.2431 10.3399C22.5945 8.51192 23.1348 7.39592 22.9661 6.91794C22.8051 6.46269 21.8111 6.58302 21.8111 6.58302L18.5031 6.60393C18.5031 6.60393 18.2579 6.56999 18.076 6.68031C17.8983 6.78852 17.7839 7.0407 17.7839 7.0407C17.7839 7.0407 17.2604 8.45524 16.5621 9.65823C15.0891 12.1967 14.5001 12.3306 14.2594 12.173C13.6994 11.8057 13.8392 10.6972 13.8392 9.9098C13.8392 7.44987 14.2068 6.4242 13.1233 6.15869C12.7637 6.07049 12.499 6.01229 11.5795 6.00289C10.3991 5.99047 9.4001 6.00653 8.83443 6.2878C8.45811 6.47481 8.16781 6.89157 8.34462 6.91552C8.56324 6.94522 9.05843 7.051 9.32095 7.41381C9.65994 7.88179 9.64799 8.93292 9.64799 8.93292C9.64799 8.93292 9.84272 11.8287 9.19312 12.1885C8.74722 12.4352 8.13555 11.9314 6.82232 9.62853C6.14943 8.44888 5.6414 7.14496 5.6414 7.14496C5.6414 7.14496 5.54344 6.90127 5.36872 6.77094C5.15666 6.61303 4.86039 6.56271 4.86039 6.56271L1.71694 6.58363C1.71694 6.58363 1.24505 6.59696 1.07182 6.80519C0.917708 6.99038 1.05957 7.37349 1.05957 7.37349C1.05957 7.37349 3.52058 13.2166 6.30712 16.1612C8.8622 18.8608 11.7637 18.6835 11.7637 18.6835Z" fill="#4A4B4D"/>
</svg>

<svg width="24" height="24" fill="none" xmlns="http://www.w3.org/2000/svg"><path fill-rule="evenodd" clip-rule="evenodd" d="M11.764 18.683h1.315s.397-.044.6-.266c.186-.203.18-.586.18-.586s-.025-1.79.794-2.054c.807-.26 1.844 1.73 2.943 2.496.83.579 1.462.452 1.462.452l2.938-.042s1.537-.096.808-1.322c-.06-.1-.424-.907-2.184-2.565-1.843-1.735-1.596-1.454.623-4.456 1.352-1.828 1.892-2.944 1.723-3.422-.16-.455-1.155-.335-1.155-.335l-3.308.02s-.245-.033-.427.077c-.178.109-.292.36-.292.36s-.524 1.415-1.222 2.618c-1.473 2.539-2.062 2.673-2.303 2.515-.56-.367-.42-1.476-.42-2.263 0-2.46.368-3.486-.716-3.751-.36-.089-.624-.147-1.543-.156-1.18-.013-2.18.004-2.746.285-.376.187-.666.604-.49.628.22.03.714.135.977.498.339.468.327 1.519.327 1.519s.195 2.896-.455 3.255c-.446.247-1.057-.257-2.37-2.56A21.553 21.553 0 015.64 7.146s-.098-.244-.272-.374c-.212-.158-.509-.208-.509-.208l-3.143.02s-.472.014-.645.222c-.154.185-.012.568-.012.568s2.46 5.844 5.247 8.788c2.555 2.7 5.457 2.522 5.457 2.522z" fill="#4A4B4D"/></svg>
